X: 3349
T: EASTER SATURDAY
%R: hornpipe, reel
B: James Kerr "Merry Melodies" v.3 p.38 #349
Z: 2016 John Chambers <jc:trillian.mit.edu>
M: C
L: 1/8
K: A
uE2 |\
AGAB cdef | gaec ABcA |\
GEBE cEBE | cedc BAGB |\
AGAB cdef | gaec ABcA |\
GBeg fe^df | f2e2 e2 :|
|: (3(efg) |\
aAce dcBA | eEGB AGFE |\
AEcA ecag | fedc (3Bcd (3efg |\
aAce dcBA | eEGB AGFE |\
Acea fdBG | B2A2 A2 :|

%%sep 1 1 500
%%sep 1 1 500

